!!!COM:	Bach, Johann Sebastian
!!!CDT:	1685/02/21/-1750/07/28/
!!!OTL@@DE:	Freu dich sehr, o meine Seele
!!!SCT:	BWV 194/6
!!!PC#:	64
!!!AGN:	chorale
**kern	**kern	**kern	**kern
*ICvox	*ICvox	*ICvox	*ICvox
*Ibass	*Itenor	*Ialto	*Isoprn
*I"Bass	*I"Tenor	*I"Alto	*I"Soprano
*>[A,A,B]	*>[A,A,B]	*>[A,A,B]	*>[A,A,B]
*>norep[A,B]	*>norep[A,B]	*>norep[A,B]	*>norep[A,B]
*>A	*>A	*>A	*>A
*clefF4	*clefGv2	*clefG2	*clefG2
*k[f#]	*k[f#]	*k[f#]	*k[f#]
*G:	*G:	*G:	*G:
*M4/4	*M4/4	*M4/4	*M4/4
*met(c)	*met(c)	*met(c)	*met(c)
*MM100	*MM100	*MM100	*MM100
=1-	=1-	=1-	=1-
4G	4B	4d	4g
4D	4F#	4d	4a
4GG	8GL	4.d	4b
.	8F#J	.	.
4AA	4E	.	4a
.	.	8c#	.
=2	=2	=2	=2
8BBL	8DL	4B	4g
8C#J	8EJ	.	.
4D	8.F#L	8AL	4f#
.	.	8dJ	.
.	16GJk	.	.
4AA	8AL	8dL	4e
.	8EJ	8c#J	.
4DD;	4F#;	4d;	4d;
=3	=3	=3	=3
4E	4G	4B	4g
8DL	4F#	4d	4a
8CnXJ	.	.	.
8BBL	4G	4d	4b
8AAJ	.	.	.
8GGL	4A	4d	4ccnX
8FF#J	.	.	.
=4	=4	=4	=4
4GG	8AL	4d	4b
.	8GJ	.	.
4DD	8GL	4d	4a
.	8F#J	.	.
2GG;	2B;	2d;	2g;
=5:|!	=5:|!	=5:|!	=5:|!
*>B	*>B	*>B	*>B
8GL	4d	4g	4b
8F#J	.	.	.
4E	4e	4g	4cc
4D	8AL	4f#	4dd
.	8BJ	.	.
4AA	4c	8eL	4cc
.	.	8f#J	.
=6	=6	=6	=6
8BBL	4d	4g	4b
8CJ	.	.	.
4D	4d	4f#	4a
2GG;	2d;	2g;	2b;
=7	=7	=7	=7
8GGL	8BL	4g	4dd
8AA	8c	.	.
8BB	8d	4g	4dd
8GGJ	8BJ	.	.
8CL	4c	4g	4ee
8BB	.	.	.
8C	4B	4f#	4dd
8DJ	.	.	.
=8	=8	=8	=8
8EL	4G	4e	4cc
8F#J	.	.	.
4G	4G	4d	4b
2D;	2F#;	2d;	2a;
=9	=9	=9	=9
4G	8GL	4d	8bL
.	8AJ	.	8ccJ
4GG	[4B	8gL	4dd
.	.	8fJ	.
4AA	8B]	4e	4cc
.	4A	.	.
4BB	.	4d	4b
.	[8G	.	.
=10	=10	=10	=10
4C	8GL]	8eL	4g
.	8F#J	8d#J	.
4C	8EL	[4e	4a
.	8F#J	.	.
2BB	8GL	8eL]	2b
.	16F#L	16d#L	.
.	16EJJ	16c#JJ	.
.	4F#	4d#	.
=11	=11	=11	=11
2E;	2E;	2B;	2g;
8EL	4G	4e	4b
8DnXJ	.	.	.
8CnXL	4G	4f	4dd
8BBJ	.	.	.
=12	=12	=12	=12
8CL	4G	4e	4cc
8DJ	.	.	.
8EL	4G	8BL	4b
8DJ	.	8cJ	.
8CL	4F#	4d	4a
8BBJ	.	.	.
8AAL	[4G	4d	4b
8GGJ	.	.	.
=13	=13	=13	=13
4D	8GL]	2d	2a
.	16F#L	.	.
.	16EJJ	.	.
4DD	4F#	.	.
2GG;	2B;	2d;	2g;
==	==	==	==
*-	*-	*-	*-
!!!hum2abc: -Q ''
!!!title: @{PC#}. @{OTL@@DE}
!!!YOR1: 371 vierstimmige Choralges&auml;nge von Johann Sebastian Bach, 
!!!YOR2: 4th ed. by Alfred D&ouml;rffel (Leipzig: Breitkopf und H&auml;rtel, 
!!!YOR2: c.1875). 178 pp. Plate "V.A.10".  reprint: J.S. Bach, 371 Four-Part 
!!!YOR4: Chorales (New York: Associated Music Publishers, Inc., c.1940).
!!!SMS: B&H, 4th ed, Alfred D&ouml;rffel, c.1875, plate V.A.10
!!!EED:  Craig Stuart Sapp
!!!EEV:  2009/05/22
